X:421
T:Reel 421
M:4/4
K:Dmaj
L:1/8
B|A3B AFED|B2dA BAdB|A2AB AFED|gfed BcdB|A2AB AFED|B2BA BcdB|A2AB AFED|gfed Bcd|e|fgaf gbag|fddf edBd|fgaf gfeg|faed d2de|faaf gbge|fbbg feeg|fgaf gfde|fgaf e2d|
